modules/themify-icons/icons/view-list.svg

<?xml version="1.0" encoding="utf-8"?>
<!-- Generated by IcoMoon.io -->
<!DOCTYPE svg PUBLIC "-//W3C//DTD SVG 1.1//EN" "http://www.w3.org/Graphics/SVG/1.1/DTD/svg11.dtd">
<svg version="1.1" xmlns="http://www.w3.org/2000/svg" xmlns:xlink="http://www.w3.org/1999/xlink" width="17" height="17" viewBox="0 0 17 17">
<g>
</g>
	<path d="M0 0v4h17v-4h-17zM16 3h-15v-2h15v2zM0 10h17v-4h-17v4zM1 7h15v2h-15v-2zM0 16h17v-4h-17v4zM1 13h15v2h-15v-2z" fill="#000000" />
</svg>

<svg xmlns="http://www.w3.org/2000/svg" width="17" height="17" viewBox="0 0 17 17"><path d="M0 0v4h17V0H0zm16 3H1V1h15v2zM0 10h17V6H0v4zm1-3h15v2H1V7zm-1 9h17v-4H0v4zm1-3h15v2H1v-2z"/></svg>
